!!!COM:	Martini, Johannes
!!!CDT:	~1440///-~1497//
!!!OTL:	O intemerata
!!!AGN:	Motet
!!!SCT:	Mar2080
!!!SCA:	Mar2080
!!!voices:	3
**kern	**kern	**kern
*staff3	*staff2	*staff1
*Ivox	*Ivox	*Ivox
*I"Contratenor	*I"Tenor	*I"Superius
*I'Ct	*I'T	*I'S
*clefF4	*clefGv2	*clefG2
*k[]	*k[]	*k[]
*M2/1	*M2/1	*M2/1
*met(C|)	*met(C|)	*met(C|)
!!section: O intemerata
!!!OMD: O intemerata
=1-	=1-	=1-
[0c	0c	0cc
=2	=2	=2
1c]	1e	1cc
1A	1f	1cc
=3	=3	=3
1G	0g	0b
2E\	.	.
2G\	.	.
=4	=4	=4
1D	1r	0a
1D	1f	.
=5	=5	=5
0E	1g	0g
.	[1e	.
=6	=6	=6
1C	1e]	1.cc
[1F	1c	.
.	.	2b\
=7	=7	=7
1F]	1d	1a
1E	1e	1g
=8	=8	=8
0D	0f	1a
.	.	1f
=9	=9	=9
0C	1.e	1.g
.	4d\	4f/
.	4c\	4e/
=10	=10	=10
0G	0B	0d
=11	=11	=11
1r	1.c	0c
1C	.	.
.	4B\	.
.	4A/	.
=12	=12	=12
1E	0G	1r
1E	.	1g
=13	=13	=13
1F	1r	1a
1G	1g	1b
=14	=14	=14
1A	1e	1cc
1B	1d	[1dd
=15	=15	=15
1.G	0g	2dd\]
.	.	2cc\
.	.	1b
4F\	.	.
4E\	.	.
=16	=16	=16
1D	1f	1a
[1E	1e	[1g
=17	=17	=17
1E]	0c	2g/]
.	.	4a/
.	.	4b\
1C	.	[1cc
=18	=18	=18
0G	0d	1cc]
.	.	1b
=19	=19	=19
1A	0c	1.cc
1c	.	.
.	.	2g/
=20	=20	=20
1F	1r	1a
1G	1d	1b
=21	=21	=21
1.c	1e	1cc
.	1f	1dd
4B\	.	.
4A\	.	.
=22	=22	=22
[0G	1.g	[0b
.	4f\	.
.	4e\	.
=23	=23	=23
0G;]	0d;	0b;]
=24	=24	=24
1C	0r	1.cc
1F	.	.
.	.	4b\
.	.	4a/
=25	=25	=25
1E	0e	1g
1C	.	1cc
=26	=26	=26
1G	1d	1b
1E	1e	1cc
=27	=27	=27
0D	0f	2dd\
.	.	2cc\
.	.	2b\
.	.	2a/
=28	=28	=28
0C	1e	1g
.	1c	1a
=29	=29	=29
1r	0d	1b
1G	.	1b
=30	=30	=30
1A	0c	1.cc
[1F	.	.
.	.	2b\
=31	=31	=31
1F]	1d	2a/
.	.	2g/
1G	1B	[1g
=32	=32	=32
0D	0A	1g]
.	.	1f#i
=33	=33	=33
*M3/1	*M3/1	*M3/1
*met(3)	*met(3)	*met(3)
1.E	0G	0g
2D\	.	.
1E	1G	1g
=34	=34	=34
1.F	0c	1.a
2G\	.	2b\
1A	1c	1cc
=35	=35	=35
0E	0G	1.b
.	.	2cc\
1G	1G	1dd
=36	=36	=36
0C	0c	1.ee
.	.	2dd\
1C	1c	1cc
=37	=37	=37
0G	0d	1.b
.	.	2cc\
1F	1f	1dd
=38	=38	=38
1C	1e	0cc
0G	0d	.
.	.	1b
=39	=39	=39
1.C	0c	0.cc
2D\	.	.
1E	1c	.
=40	=40	=40
1.F	1.d	0.r
2E\	2e\	.
1D	1f	.
=41	=41	=41
0C	0e	1.cc
.	.	2dd\
1C	1c	1ee
=42	=42	=42
0BB-	0d	0ff
1BB-i	1d	1ff
=43	=43	=43
1C	1.c	1.ee
1r	.	.
.	2B\	2dd\
1F	1A	1cc
=44	=44	=44
0G	1G	0b
.	1g	.
1D	1f	1a
=45	=45	=45
0E	1g	0g
.	1c	.
1D	1d	1f
=46	=46	=46
0A	0c	1e
.	.	1c
1G	1B	1d
=47	=47	=47
0C	1.c	0e
.	2B\	.
1D	1A	1f
=48	=48	=48
0E	1G	0g
.	0c	.
1C	.	1a
=49	=49	=49
0G	1d	1b
.	1e	0g
1E	[1c	.
=50	=50	=50
1C	1c]	1cc
1.D	1f	0a
.	[1d	.
2E\	.	.
=51	=51	=51
2F\	1d]	1dd
2D\	.	.
1E	1g	1b
2C/	1e	1cc
2c\	.	.
=52	=52	=52
2A\	1f	1.dd
2G\	.	.
1.G	1.g	.
.	.	2cc\
.	.	2b\
2D\	2f\	2a/
=53	=53	=53
1G	2e\	1g
.	2d\	.
1.A	0c	1.ee
2B\	.	2dd\
=54	=54	=54
1c	1e	0cc
0G	0d	.
.	.	1b
=55	=55	=55
0.Cl	0.cl	0.ccl
==	==	==
*-	*-	*-
!!!RDF**kern: l=long note in original notation
!!!RDF**kern: i=editorial accidental
!!!ENC:	Chris Gage 09-23-2014
!!!END:	2014/10/05/
!!!EED:	Jesse Rodin
!!!EEV:	2014/10/23/
!!!ONB:	Translated from MusicXML and edited on 2014/10/23/ by Craig Sapp
!!muse2ps: C^@{COM}^i2I150v85,85,150Q16
